/* XPM */
static const char *const kChevronRightAllIcon[] = {
    "16 16 2 1",
    ". c None",
    "K c #000000",
    "................",
    "................",
    "................",
    "..K.....K.......",
    "..KK....KK......",
    "..KKK...KKK.....",
    "..KKKK..KKKK....",
    "..KKKKK.KKKKK...",
    "..KKKKK.KKKKK...",
    "..KKKK..KKKK....",
    "..KKK...KKK.....",
    "..KK....KK......",
    "..K.....K.......",
    "................",
    "................",
    "................"
};
