/* XPM */
static const char *const kDustIcon[] = {
    "16 16 4 1",
    ". c None",
    "K c #000000",
    "B c #b07030",
    "G c #8c8c8c",
    "................",
    "..KK.......K....",
    "..KK......KKK...",
    "...........K....",
    ".......K........",
    ".............BB.",
    "............BB..",
    "...........BB...",
    "..........BB....",
    "..K......BB.....",
    ".KKK....KK......",
    "..K...GKKKK.....",
    ".....GKKKKK.....",
    ".....GKKKK......",
    "......GKK.......",
    "................"
};
