/* XPM */
static const char *const kHdrIcon[] = {
    "16 16 4 1",
    ". c None",
    "K c #000000",
    "Y c #ffff00",
    "O c #ff8000",
    ".......K........",
    "....K.KKK.K.....",
    ".....KYYYK......",
    ".K..KYOYYYK..K..",
    ".....KYYYK......",
    "....K.KKK.K.....",
    ".......K........",
    "................",
    "..K.K.KK..KK....",
    "..K.K.K.K.K.K...",
    "..KKK.K.K.KK....",
    "..K.K.K.K.K.K...",
    "..K.K.KK..K.K...",
    "................",
    "..KKKKKKKKKKKK..",
    "................"
};
