/* XPM */
static const char *const kSelectAllIcon[] = {
    "16 16 3 1",
    ". c None",
    "K c #000000",
    "B c #000080",
    "................",
    "..KKKKKK.KKKKKK.",
    "..KBBBBK.KBBBBK.",
    "..KBBBBK.KBBBBK.",
    "..KBBBBK.KBBBBK.",
    "..KBBBBK.KBBBBK.",
    "..KKKKKK.KKKKKK.",
    "................",
    "..KKKKKK.KKKKKK.",
    "..KBBBBK.KBBBBK.",
    "..KBBBBK.KBBBBK.",
    "..KBBBBK.KBBBBK.",
    "..KBBBBK.KBBBBK.",
    "..KKKKKK.KKKKKK.",
    "................",
    "................"
};
