/* XPM */
static const char *const kVignetteIcon[] = {
    "16 16 4 1",
    ". c None",
    "K c #000000",
    "D c #808080",
    "W c #ffffff",
    "KKKKKKKKKKKKKKKK",
    "KKKDDDDDDDDDDKKK",
    "KKDDWWWWWWWWDDKK",
    "KDDWWWWWWWWWWDDK",
    "KDWWWWWWWWWWWWDK",
    "KDWWWWWWWWWWWWDK",
    "KDWWWWWWWWWWWWDK",
    "KDWWWWWWWWWWWWDK",
    "KDWWWWWWWWWWWWDK",
    "KDWWWWWWWWWWWWDK",
    "KDWWWWWWWWWWWWDK",
    "KDWWWWWWWWWWWWDK",
    "KDDWWWWWWWWWWDDK",
    "KKDDWWWWWWWWDDKK",
    "KKKDDDDDDDDDDKKK",
    "KKKKKKKKKKKKKKKK"
};
